www/assets/icons/auto_stories.svg

<svg xmlns="http://www.w3.org/2000/svg" width="24" height="24" viewBox="0 0 24 24" fill='currentColor'><path d="m19 1.75-5 5v11l5-4.5zm-18 5V21.4c0 .25.25.5.5.5.1 0 .15-.05.25-.05 1.35-.65 3.3-1.1 4.75-1.1 1.95 0 4.05.4 5.5 1.5V6.75c-1.45-1.1-3.55-1.5-5.5-1.5s-4.05.4-5.5 1.5m22 0c-.6-.45-1.25-.75-2-1v13.5c-1.1-.35-2.3-.5-3.5-.5-1.7 0-4.15.65-5.5 1.5v2c1.35-.85 3.8-1.5 5.5-1.5 1.65 0 3.35.3 4.75 1.05.1.05.15.05.25.05.25 0 .5-.25.5-.5z"/></svg>

<svg width="24" height="24" viewBox="0 0 24 24" xmlns="http://www.w3.org/2000/svg" fill='currentColor'><path d="M19 1.75L14 6.75V17.75L19 13.25V1.75ZM1 6.75V21.4C1 21.65 1.25 21.9 1.5 21.9C1.6 21.9 1.65 21.85 1.75 21.85C3.1 21.2 5.05 20.75 6.5 20.75C8.45 20.75 10.55 21.15 12 22.25V6.75C10.55 5.65 8.45 5.25 6.5 5.25C4.55 5.25 2.45 5.65 1 6.75ZM23 6.75C22.4 6.3 21.75 6 21 5.75V19.25C19.9 18.9 18.7 18.75 17.5 18.75C15.8 18.75 13.35 19.4 12 20.25V22.25C13.35 21.4 15.8 20.75 17.5 20.75C19.15 20.75 20.85 21.05 22.25 21.8C22.35 21.85 22.4 21.85 22.5 21.85C22.75 21.85 23 21.6 23 21.35V6.75Z"/></svg>
